assets/icons/action/new_custom64.svg

<?xml version="1.0"?><svg xmlns="http://www.w3.org/2000/svg" width="52" height="52" viewBox="0 0 52 52"><g fill="#fff"><path d="m26 2c-13.2 0-24 10.8-24 24s10.8 24 24 24 24-10.8 24-24-10.8-24-24-24z m0 41.6c-9.7 0-17.6-7.9-17.6-17.6s7.9-17.6 17.6-17.6 17.6 7.9 17.6 17.6-7.9 17.6-17.6 17.6z m9.3-27.9l-13.3 4.8c-0.7 0.2-1.3 0.8-1.5 1.5l-4.8 13.3c-0.2 0.6 0.4 1.3 1 1l13.3-4.8c0.7-0.2 1.3-0.8 1.5-1.5l4.8-13.3c0.3-0.6-0.4-1.3-1-1z m-9.3 13.5c-1.8 0-3.2-1.4-3.2-3.2s1.4-3.2 3.2-3.2 3.2 1.4 3.2 3.2-1.4 3.2-3.2 3.2z"></path></g></svg>

<svg xmlns="http://www.w3.org/2000/svg" x="0px" y="0px"
	 width="52px" height="52px" viewBox="0 0 52 52" enable-background="new 0 0 52 52" xml:space="preserve">
<g>
	<path fill="#FFFFFF" d="M26,2C12.8,2,2,12.8,2,26s10.8,24,24,24s24-10.8,24-24S39.2,2,26,2z M26,43.6c-9.7,0-17.6-7.9-17.6-17.6
		S16.3,8.4,26,8.4S43.6,16.3,43.6,26S35.7,43.6,26,43.6z"/>
	<path fill="#FFFFFF" d="M35.3,15.7L22,20.5c-0.7,0.2-1.3,0.8-1.5,1.5l-4.8,13.3c-0.2,0.6,0.4,1.3,1,1L30,31.5
		c0.7-0.2,1.3-0.8,1.5-1.5l4.8-13.3C36.6,16.1,35.9,15.4,35.3,15.7z M26,29.2c-1.8,0-3.2-1.4-3.2-3.2s1.4-3.2,3.2-3.2
		s3.2,1.4,3.2,3.2S27.8,29.2,26,29.2z"/>
</g>
</svg>
